X:896
T:Smith's a Gallant Fireman, The
S:Sessions
Z:Nigel Gatherer
M:4/4
L:1/8
K:D
D2 D>F A2 A>F | A>Bd>A F2D2 | E2 E>G B2 B>A | d>fe>d B2 B<d |
D2 D>F A2 A>F | A>Bd>A F2D2 | G>BGAF<A | E>FG>A B2 A2 :|
d2 d>f d2 d>A | B>Ad>A F2 D2 | e2 e>f e2 e>f | g>fe>d B2 (3ABc |
d>ef>e d2 d>A | B>Ad>A F2 D2 | G>BGAF<A | E>FG>A B2 A2 :|
